;FLAVOR:UltiGCode
;TIME:3691
;MATERIAL:7193
;MATERIAL2:0
;NOZZLE_DIAMETER:0.4
;Generated with Cura_SteamEngine 3.3.1
M82 ;absolute extrusion mode

G92 E0
G10
;LAYER_COUNT:48
;LAYER:0
M107
G0 F4500 X83.07 Y69.431 Z0.27
;TYPE:SKIRT
G11
G1 F1800 X83.396 Y69.084 E0.04499
G1 X84.317 Y68.161 E0.16821
G1 X84.906 Y67.628 E0.24328
G1 X85.544 Y67.157 E0.31822
G1 X85.95 Y66.906 E0.36333
G1 X87.074 Y66.256 E0.48603
G1 X87.78 Y65.894 E0.561
G1 X88.486 Y65.615 E0.63274
G1 X89.111 Y65.403 E0.69511
G1 X89.875 Y65.187 E0.77014
G1 X90.61 Y65.054 E0.84072
G1 X91.874 Y64.887 E0.96121
G1 X92.936 Y64.819 E1.06177
G1 X103.614 Y64.861 E2.07085
G1 X104.406 Y64.904 E2.14581
G1 X105.19 Y65.027 E2.2208
G1 X105.633 Y65.132 E2.26382
G1 X106.883 Y65.469 E2.38617
G1 X107.638 Y65.714 E2.46118
G1 X108.364 Y66.034 E2.53615
G1 X108.778 Y66.257 E2.58059
G1 X109.901 Y66.907 E2.70321
G1 X110.567 Y67.339 E2.77823
G1 X111.186 Y67.835 E2.85318
G1 X111.531 Y68.161 E2.89804
G1 X112.449 Y69.081 E3.02086
G1 X112.98 Y69.67 E3.0958
G1 X113.449 Y70.309 E3.1707
G1 X113.696 Y70.709 E3.21513
G1 X114.339 Y71.824 E3.33676
G1 X114.7 Y72.53 E3.41169
G1 X114.989 Y73.27 E3.48677
G1 X115.122 Y73.715 E3.53066
G1 X115.461 Y74.977 E3.65414
G1 X115.628 Y75.753 E3.72916
G1 X115.716 Y76.541 E3.80408
G1 X115.731 Y77.012 E3.84862
G1 X115.772 Y116.496 E7.57986
G1 X127.517 Y117.292 E8.6923
G1 X127.021 Y117.109 E8.74227
G1 X126.308 Y116.762 E8.8172
G1 X125.633 Y116.344 E8.89223
G1 X125.004 Y115.861 E8.96717
G1 X124.57 Y115.462 E9.02288
G1 X124.467 Y115.36 E9.03658
G1 X123.932 Y114.774 E9.11157
G1 X123.459 Y114.137 E9.18654
G1 X123.052 Y113.455 E9.2616
G1 X122.716 Y112.737 E9.33651
G1 X122.453 Y111.988 E9.41153
G1 X122.268 Y111.216 E9.48655
G1 X122.161 Y110.43 E9.56151
G1 X122.133 Y109.78 E9.62299
G1 X122.101 Y94.083 E11.10636
G1 X121.932 Y91.943 E11.30922
G1 X121.908 Y91.321 E11.36804
G1 X121.915 Y73.715 E13.03181
G1 X121.955 Y72.922 E13.10684
G1 X122.075 Y72.138 E13.18179
G1 X122.273 Y71.37 E13.25674
G1 X122.548 Y70.625 E13.33179
G1 X122.896 Y69.912 E13.40676
G1 X123.314 Y69.238 E13.48171
G1 X123.797 Y68.609 E13.55665
G1 X124.249 Y68.122 E13.61944
G1 X124.352 Y68.02 E13.63314
G1 X124.943 Y67.491 E13.7081
G1 X125.584 Y67.024 E13.78304
G1 X126.27 Y66.624 E13.85808
G1 X126.992 Y66.295 E13.93306
G1 X127.743 Y66.04 E14.00801
G1 X128.516 Y65.862 E14.08297
G1 X129.304 Y65.763 E14.15802
G1 X129.893 Y65.741 E14.21372
G1 X136.9 Y65.741 E14.87589
G1 X137.569 Y65.769 E14.93916
G1 X141.347 Y66.091 E15.29748
G1 X144.148 Y66.091 E15.56217
G1 X144.94 Y66.131 E15.63711
G1 X145.725 Y66.25 E15.71214
G1 X146.493 Y66.448 E15.78709
G1 X147.238 Y66.723 E15.86214
G1 X147.951 Y67.07 E15.93707
G1 X148.626 Y67.488 E16.0121
G1 X149.255 Y67.971 E16.08704
G1 X149.689 Y68.37 E16.14275
G1 X149.792 Y68.472 E16.15645
G1 X150.327 Y69.058 E16.23144
G1 X150.8 Y69.695 E16.30641
G1 X151.207 Y70.377 E16.38147
G1 X151.543 Y71.095 E16.45638
G1 X151.806 Y71.844 E16.5314
G1 X151.991 Y72.616 E16.60642
G1 X152.098 Y73.402 E16.68138
G1 X152.126 Y74.066 E16.74418
G1 X152.127 Y78.111 E17.12643
G1 X152.087 Y78.904 E17.20147
G1 X151.968 Y79.688 E17.2764
G1 X151.77 Y80.456 E17.35135
G1 X151.496 Y81.201 E17.42637
G1 X151.149 Y81.914 E17.5013
G1 X150.731 Y82.589 E17.57633
G1 X150.248 Y83.218 E17.65127
G1 X149.848 Y83.654 E17.70719
G1 X149.746 Y83.757 E17.72088
G1 X149.16 Y84.292 E17.79587
G1 X148.523 Y84.765 E17.87085
G1 X148.233 Y84.938 E17.90276
G1 X148.792 Y85.381 E17.97016
G1 X149.23 Y85.756 E18.02465
G1 X150.38 Y86.812 E18.17219
G1 X150.799 Y87.225 E18.22779
G1 X151.867 Y88.364 E18.37534
G1 X152.249 Y88.804 E18.4304
G1 X153.239 Y90.03 E18.57932
G1 X153.582 Y90.487 E18.63331
G1 X154.478 Y91.778 E18.78182
G1 X154.794 Y92.272 E18.83723
G1 X155.609 Y93.656 E18.98901
G1 X155.903 Y94.203 E19.0477
G1 X156.681 Y95.8 E19.21557
G1 X156.909 Y96.315 E19.2688
G1 X157.41 Y97.563 E19.39588
G1 X157.614 Y98.135 E19.45327
G1 X158.215 Y100.047 E19.64267
G1 X158.847 Y100.438 E19.7129
G1 X159.476 Y100.921 E19.78784
G1 X159.91 Y101.32 E19.84355
G1 X160.013 Y101.422 E19.85725
G1 X160.548 Y102.008 E19.93224
G1 X161.021 Y102.645 E20.00721
G1 X161.428 Y103.327 E20.08227
G1 X161.764 Y104.045 E20.15718
G1 X162.027 Y104.794 E20.2322
G1 X162.212 Y105.566 E20.30722
G1 X162.319 Y106.352 E20.38218
G1 X162.347 Y107.015 E20.44489
G1 X162.348 Y109.76 E20.70429
G1 X162.308 Y110.553 E20.77932
G1 X162.189 Y111.337 E20.85426
G1 X161.992 Y112.106 E20.92928
G1 X161.718 Y112.85 E21.0042
G1 X161.37 Y113.564 E21.07926
G1 X160.953 Y114.238 E21.15416
G1 X160.469 Y114.868 E21.22924
G1 X160.069 Y115.304 E21.28515
G1 X159.967 Y115.407 E21.29885
G1 X159.381 Y115.942 E21.37383
G1 X158.744 Y116.415 E21.44881
G1 X158.062 Y116.822 E21.52386
G1 X157.344 Y117.158 E21.59878
G1 X156.595 Y117.421 E21.67379
G1 X155.823 Y117.606 E21.74881
G1 X155.037 Y117.713 E21.82378
G1 X154.371 Y117.741 E21.88677
G1 X132.682 Y117.741 E23.93638
G1 X132.702 Y117.745 E23.93831
G1 X133.775 Y117.994 E24.0424
G1 X134.538 Y118.212 E24.11739
G1 X135.275 Y118.506 E24.19237
G1 X136.083 Y118.934 E24.27878
G1 X137.023 Y119.505 E24.38271
G1 X137.68 Y119.951 E24.45775
G1 X138.288 Y120.46 E24.53269
G1 X138.591 Y120.757 E24.57278
G1 X139.395 Y121.587 E24.68198
G1 X139.918 Y122.184 E24.75698
G1 X140.264 Y122.657 E24.81237
G1 X140.735 Y123.354 E24.89186
G1 X141.145 Y124.033 E24.96682
G1 X141.486 Y124.75 E25.04185
G1 X141.752 Y125.497 E25.11678
G1 X141.986 Y126.517 E25.21567
G1 X142.123 Y127.372 E25.2975
G1 X142.209 Y128.161 E25.3725
G1 X142.215 Y128.954 E25.44744
G1 X142.104 Y129.975 E25.5445
G1 X142.027 Y130.415 E25.58671
G1 X141.851 Y131.189 E25.66172
G1 X141.598 Y131.941 E25.7367
G1 X141.156 Y132.879 E25.83469
G1 X140.742 Y133.625 E25.91531
G1 X140.322 Y134.299 E25.99036
G1 X139.837 Y134.927 E26.06534
G1 X139.291 Y135.503 E26.14034
G1 X138.956 Y135.804 E26.1829
G1 X138.163 Y136.478 E26.28125
G1 X137.316 Y137.106 E26.38089
G1 X136.398 Y137.695 E26.48397
G1 X135.709 Y138.089 E26.55897
G1 X134.984 Y138.412 E26.63397
G1 X134.119 Y138.691 E26.71986
G1 X133.049 Y138.968 E26.82431
G1 X132.271 Y139.128 E26.89937
G1 X131.482 Y139.208 E26.97431
G1 X130.564 Y139.202 E27.06107
G1 X113.199 Y138.072 E28.70553
G1 X112.474 Y138.575 E28.78892
G1 X111.8 Y138.994 E28.86392
G1 X111.087 Y139.342 E28.93889
G1 X110.71 Y139.492 E28.97723
G1 X109.638 Y139.887 E29.0852
G1 X108.88 Y140.124 E29.16025
G1 X107.869 Y140.315 E29.25748
G1 X106.706 Y140.457 E29.3682
G1 X105.727 Y140.515 E29.46087
G1 X92.241 Y140.473 E30.73531
G1 X91.449 Y140.431 E30.81026
G1 X90.665 Y140.309 E30.88524
G1 X90.222 Y140.203 E30.92828
G1 X88.972 Y139.867 E31.0506
G1 X88.217 Y139.623 E31.12558
G1 X87.49 Y139.304 E31.2006
G1 X87.07 Y139.077 E31.24572
G1 X85.944 Y138.425 E31.36868
G1 X85.278 Y137.993 E31.4437
G1 X84.659 Y137.497 E31.51865
G1 X84.315 Y137.172 E31.56338
G1 X83.399 Y136.254 E31.68593
G1 X82.868 Y135.665 E31.76087
G1 X82.399 Y135.025 E31.83585
G1 X82.154 Y134.63 E31.87977
G1 X81.509 Y133.513 E32.00166
G1 X81.148 Y132.807 E32.0766
G1 X80.859 Y132.068 E32.15158
G1 X80.725 Y131.624 E32.19541
G1 X80.389 Y130.377 E32.31745
G1 X80.222 Y129.601 E32.39246
G1 X80.133 Y128.813 E32.4674
G1 X80.118 Y128.328 E32.51326
G1 X80.117 Y77.02 E37.36186
G1 X80.157 Y76.228 E37.4368
G1 X80.276 Y75.443 E37.51183
G1 X80.383 Y74.992 E37.55564
G1 X80.717 Y73.739 E37.67818
G1 X80.959 Y72.983 E37.75319
G1 X81.277 Y72.256 E37.82818
G1 X81.5 Y71.84 E37.87278
G1 X82.145 Y70.719 E37.995
G1 X82.575 Y70.052 E38.07
G1 X83.07 Y69.431 E38.14504
G0 F4500 X83.355 Y69.637
G1 F1800 X83.644 Y69.331 E38.18482
G1 X84.565 Y68.408 E38.30804
G1 X85.141 Y67.888 E38.38137
G1 X85.767 Y67.43 E38.45467
G1 X86.125 Y67.209 E38.49443
G1 X87.249 Y66.559 E38.61713
G1 X87.939 Y66.206 E38.69037
G1 X88.599 Y65.947 E38.75737
G1 X89.224 Y65.735 E38.81974
G1 X89.97 Y65.524 E38.893
G1 X90.655 Y65.401 E38.95877
G1 X91.919 Y65.234 E39.07925
G1 X92.935 Y65.169 E39.17546
G1 X103.613 Y65.211 E40.18454
G1 X104.387 Y65.254 E40.2578
G1 X105.153 Y65.377 E40.33111
G1 X105.542 Y65.47 E40.36891
G1 X106.792 Y65.807 E40.49125
G1 X107.529 Y66.048 E40.56453
G1 X108.238 Y66.363 E40.63784
G1 X108.603 Y66.56 E40.67704
G1 X109.726 Y67.21 E40.79965
G1 X110.376 Y67.633 E40.87294
G1 X110.979 Y68.12 E40.94619
G1 X111.283 Y68.408 E40.98576
G1 X112.201 Y69.328 E41.10858
G1 X112.72 Y69.904 E41.18185
G1 X113.176 Y70.531 E41.25511
G1 X113.393 Y70.884 E41.29427
G1 X114.036 Y71.999 E41.4159
G1 X114.388 Y72.69 E41.48919
G1 X114.667 Y73.413 E41.56242
G1 X114.784 Y73.806 E41.60117
G1 X115.123 Y75.068 E41.72466
G1 X115.286 Y75.826 E41.79793
G1 X115.369 Y76.597 E41.87121
G1 X115.381 Y77.012 E41.91044
G1 X115.422 Y116.823 E45.67258
G1 X131.431 Y117.908 E47.1889
G1 X132.201 Y118 E47.26218
G1 X132.623 Y118.086 E47.30288
G1 X133.696 Y118.335 E47.40698
G1 X134.442 Y118.549 E47.48032
G1 X135.161 Y118.838 E47.55355
G1 X135.902 Y119.234 E47.63294
G1 X136.842 Y119.805 E47.73688
G1 X137.483 Y120.241 E47.81014
G1 X138.34 Y121 E47.91832
G1 X139.144 Y121.83 E48.02752
G1 X139.654 Y122.415 E48.10086
G1 X139.974 Y122.853 E48.15212
G1 X140.445 Y123.55 E48.23161
G1 X140.845 Y124.214 E48.30487
G1 X141.176 Y124.916 E48.37821
G1 X141.432 Y125.648 E48.45149
G1 X141.64 Y126.572 E48.541
G1 X141.777 Y127.427 E48.62283
G1 X141.86 Y128.199 E48.6962
G1 X141.864 Y128.974 E48.76944
G1 X141.759 Y129.915 E48.85892
G1 X141.682 Y130.355 E48.90113
G1 X141.509 Y131.111 E48.97442
G1 X141.26 Y131.846 E49.04775
G1 X140.85 Y132.709 E49.13804
G1 X140.436 Y133.455 E49.21867
G1 X140.025 Y134.113 E49.29198
G1 X139.549 Y134.725 E49.36525
G1 X138.729 Y135.538 E49.47437
G1 X137.936 Y136.212 E49.57272
G1 X137.127 Y136.811 E49.66784
G1 X136.209 Y137.4 E49.77091
G1 X135.535 Y137.785 E49.84427
G1 X134.826 Y138.098 E49.91751
G1 X134.031 Y138.352 E49.99637
G1 X132.961 Y138.629 E50.10082
G1 X132.201 Y138.784 E50.17412
G1 X131.429 Y138.861 E50.24744
G1 X130.586 Y138.853 E50.3271
G1 X113.099 Y137.715 E51.98312
G1 X112.274 Y138.287 E52.07799
G1 X111.615 Y138.696 E52.15128
G1 X110.589 Y139.164 E52.25785
G1 X109.517 Y139.559 E52.36581
G1 X108.776 Y139.789 E52.43913
G1 X107.827 Y139.968 E52.5304
G1 X106.664 Y140.11 E52.64112
G1 X105.729 Y140.165 E52.72963
G1 X92.243 Y140.123 E54.00406
G1 X91.468 Y140.081 E54.0774
G1 X90.702 Y139.959 E54.1507
G1 X90.313 Y139.865 E54.18852
G1 X89.063 Y139.529 E54.31084
G1 X88.325 Y139.289 E54.38418
G1 X87.616 Y138.975 E54.45745
G1 X87.245 Y138.774 E54.49733
G1 X86.119 Y138.122 E54.62029
G1 X85.469 Y137.699 E54.69357
G1 X84.866 Y137.212 E54.76682
G1 X84.563 Y136.925 E54.80626
G1 X83.647 Y136.007 E54.92881
G1 X83.128 Y135.431 E55.00208
G1 X82.672 Y134.804 E55.07534
G1 X82.457 Y134.455 E55.11408
G1 X81.812 Y133.338 E55.23597
G1 X81.46 Y132.647 E55.30925
G1 X81.18 Y131.924 E55.38252
G1 X81.063 Y131.533 E55.42109
G1 X80.727 Y130.286 E55.54313
G1 X80.564 Y129.527 E55.61649
G1 X80.48 Y128.756 E55.68979
G1 X80.468 Y128.328 E55.73025
G1 X80.467 Y77.02 E60.57885
G1 X80.507 Y76.246 E60.65209
G1 X80.626 Y75.479 E60.72544
G1 X80.721 Y75.082 E60.76402
G1 X81.055 Y73.829 E60.88656
G1 X81.293 Y73.091 E60.95984
G1 X81.606 Y72.381 E61.03316
G1 X81.804 Y72.014 E61.07257
G1 X82.449 Y70.893 E61.19479
G1 X82.87 Y70.242 E61.26805
G1 X83.355 Y69.637 E61.34133
G0 F4500 X83.892 Y69.578
G1 F1800 X84.813 Y68.655 E61.46455
G1 X85.376 Y68.148 E61.53614
G1 X86.3 Y67.512 E61.64215
G1 X87.424 Y66.862 E61.76485
G1 X88.099 Y66.518 E61.83644
G1 X88.711 Y66.278 E61.89856
G1 X89.336 Y66.066 E61.96093
G1 X90.065 Y65.861 E62.03249
G1 X90.701 Y65.748 E62.09354
G1 X91.965 Y65.581 E62.21402
G1 X92.933 Y65.519 E62.30569
G1 X103.611 Y65.561 E63.31477
G1 X104.367 Y65.604 E63.38632
G1 X105.451 Y65.808 E63.49056
G1 X106.701 Y66.145 E63.6129
G1 X107.421 Y66.381 E63.6845
G1 X108.427 Y66.863 E63.78992
G1 X109.55 Y67.513 E63.91254
G1 X110.185 Y67.927 E63.98417
G1 X111.035 Y68.655 E64.08993
G1 X111.953 Y69.575 E64.21275
G1 X112.459 Y70.139 E64.28435
G1 X113.09 Y71.059 E64.38978
G1 X113.733 Y72.174 E64.51141
G1 X114.076 Y72.849 E64.58296
G1 X114.446 Y73.897 E64.68799
G1 X114.785 Y75.159 E64.81147
G1 X114.943 Y75.899 E64.88298
G1 X115.031 Y77.013 E64.98858
G1 X115.072 Y117.15 E68.78153
G1 X131.407 Y118.257 E70.32873
G1 X132.159 Y118.348 E70.40031
G1 X132.544 Y118.427 E70.43745
G1 X133.617 Y118.676 E70.54154
G1 X134.345 Y118.886 E70.61314
G1 X135.046 Y119.171 E70.68466
G1 X135.72 Y119.533 E70.75695
G1 X136.66 Y120.104 E70.86089
G1 X137.286 Y120.531 E70.9325
G1 X138.089 Y121.244 E71.03398
G1 X138.893 Y122.074 E71.14318
G1 X139.39 Y122.645 E71.21471
G1 X139.684 Y123.049 E71.26193
G1 X140.155 Y123.746 E71.34143
G1 X140.545 Y124.395 E71.41298
G1 X140.865 Y125.081 E71.48451
G1 X141.111 Y125.798 E71.55614
G1 X141.295 Y126.628 E71.63648
G1 X141.432 Y127.483 E71.71831
G1 X141.512 Y128.236 E71.78987
G1 X141.512 Y128.993 E71.86141
G1 X141.415 Y129.855 E71.94338
G1 X141.338 Y130.295 E71.98559
G1 X141.168 Y131.033 E72.05716
G1 X140.921 Y131.749 E72.12873
G1 X140.544 Y132.54 E72.21154
G1 X140.13 Y133.286 E72.29217
G1 X139.728 Y133.928 E72.36375
G1 X139.26 Y134.523 E72.43528
G1 X138.503 Y135.271 E72.53585
G1 X137.71 Y135.945 E72.6342
G1 X136.938 Y136.517 E72.725
G1 X136.02 Y137.106 E72.82807
G1 X135.361 Y137.481 E72.89972
G1 X134.668 Y137.784 E72.9712
G1 X133.943 Y138.013 E73.04305
G1 X132.873 Y138.29 E73.14749
G1 X132.131 Y138.441 E73.21905
G1 X131.377 Y138.513 E73.29063
G1 X130.609 Y138.504 E73.36321
G1 X113.001 Y137.358 E75.03069
G1 X112.075 Y138 E75.13717
G1 X111.431 Y138.398 E75.20871
G1 X110.468 Y138.836 E75.30868
G1 X109.396 Y139.231 E75.41664
G1 X108.672 Y139.454 E75.48823
G1 X107.785 Y139.62 E75.57351
G1 X106.622 Y139.762 E75.68423
G1 X105.73 Y139.815 E75.76867
G1 X92.244 Y139.773 E77.04311
G1 X91.487 Y139.731 E77.11475
G1 X90.403 Y139.527 E77.21899
G1 X89.153 Y139.191 E77.34131
G1 X88.433 Y138.956 E77.41288
G1 X87.421 Y138.471 E77.51893
G1 X86.295 Y137.819 E77.64189
G1 X85.66 Y137.406 E77.71347
G1 X84.811 Y136.678 E77.81916
G1 X83.895 Y135.76 E77.94171
G1 X83.389 Y135.196 E78.01331
G1 X82.761 Y134.28 E78.11827
G1 X82.116 Y133.163 E78.24016
G1 X81.772 Y132.488 E78.31175
G1 X81.401 Y131.442 E78.41663
G1 X81.065 Y130.195 E78.53867
G1 X80.907 Y129.454 E78.61027
G1 X80.818 Y128.328 E78.71701
G1 X80.817 Y77.02 E83.56562
G1 X80.857 Y76.264 E83.63716
G1 X81.059 Y75.172 E83.7421
G1 X81.393 Y73.919 E83.86465
G1 X81.627 Y73.198 E83.93628
G1 X82.107 Y72.189 E84.04187
G1 X82.752 Y71.068 E84.16409
G1 X83.164 Y70.432 E84.2357
G1 X83.892 Y69.578 E84.34175
G0 F4500 X84.14 Y69.825
G1 F1800 X85.061 Y68.902 E84.46497
G1 X85.61 Y68.408 E84.53476
G1 X86.475 Y67.815 E84.63386
G1 X87.599 Y67.165 E84.75656
G1 X88.258 Y66.83 E84.82642
G1 X88.824 Y66.61 E84.88381
G1 X89.449 Y66.398 E84.94618
G1 X90.16 Y66.199 E85.01595
G1 X90.747 Y66.095 E85.07228
G1 X92.011 Y65.928 E85.19277
G1 X92.932 Y65.869 E85.27998
G1 X103.61 Y65.911 E86.28906
G1 X104.347 Y65.954 E86.35883
G1 X105.36 Y66.146 E86.45626
G1 X106.61 Y66.483 E86.5786
G1 X107.311 Y66.714 E86.64835
G1 X108.252 Y67.166 E86.747
G1 X109.375 Y67.816 E86.86962
G1 X109.993 Y68.22 E86.93939
G1 X110.787 Y68.902 E87.0383
G1 X111.705 Y69.822 E87.16112
G1 X112.198 Y70.373 E87.23099
G1 X112.786 Y71.233 E87.32944
G1 X113.429 Y72.348 E87.45108
G1 X113.763 Y73.007 E87.52089
G1 X114.108 Y73.987 E87.61907
G1 X114.447 Y75.249 E87.74256
G1 X114.6 Y75.972 E87.8124
G1 X114.681 Y77.013 E87.91107
G1 X114.723 Y117.478 E91.73501
G1 X131.383 Y118.607 E93.31299
G1 X132.465 Y118.768 E93.41637
G1 X133.538 Y119.017 E93.52046
G1 X134.247 Y119.222 E93.59021
G1 X134.93 Y119.503 E93.66
G1 X135.538 Y119.832 E93.72533
G1 X136.478 Y120.403 E93.82926
G1 X137.088 Y120.82 E93.89909
G1 X137.837 Y121.487 E93.99387
G1 X138.641 Y122.317 E94.10307
G1 X139.126 Y122.875 E94.17293
G1 X139.394 Y123.245 E94.21611
G1 X139.865 Y123.942 E94.2956
G1 X140.245 Y124.575 E94.36537
G1 X140.554 Y125.246 E94.43518
G1 X140.789 Y125.946 E94.50496
G1 X140.949 Y126.683 E94.57623
G1 X141.086 Y127.538 E94.65806
G1 X141.163 Y128.273 E94.72789
G1 X141.161 Y129.011 E94.79764
G1 X141.07 Y129.794 E94.87213
G1 X140.993 Y130.234 E94.91434
G1 X140.826 Y130.954 E94.98419
G1 X140.583 Y131.652 E95.05403
G1 X140.238 Y132.37 E95.12931
G1 X139.824 Y133.116 E95.20993
