;FLAVOR:UltiGCode
;TIME:3357
;MATERIAL:9164
;MATERIAL2:0
;NOZZLE_DIAMETER:0.4
;Generated with Cura_SteamEngine 3.2.1
M82 ;absolute extrusion mode

;LAYER_COUNT:152
;LAYER:0
M107
G0 F4500 X82.165 Y87.322 Z0.27
;TYPE:SKIRT
G1 F1800 X82.764 Y86.802 E0.07496
G1 X83.413 Y86.346 E0.14992
G1 X84.105 Y85.957 E0.22493
G1 X84.832 Y85.639 E0.29992
G1 X85.588 Y85.396 E0.37496
G1 X86.364 Y85.231 E0.44993
G1 X87.152 Y85.145 E0.52484
G1 X87.615 Y85.131 E0.56861
G1 X120.385 Y85.131 E3.66538
G1 X121.177 Y85.171 E3.74032
G1 X121.962 Y85.29 E3.81535
G1 X122.73 Y85.488 E3.8903
G1 X123.475 Y85.763 E3.96534
G1 X124.188 Y86.11 E4.04028
G1 X124.863 Y86.528 E4.11531
G1 X125.492 Y87.011 E4.19025
G1 X126.069 Y87.556 E4.26525
G1 X126.589 Y88.155 E4.34021
G1 X127.045 Y88.804 E4.41517
G1 X127.434 Y89.496 E4.49019
G1 X127.752 Y90.223 E4.56517
G1 X127.995 Y90.979 E4.64021
G1 X128.16 Y91.755 E4.71519
G1 X128.246 Y92.543 E4.79009
G1 X128.26 Y93.006 E4.83387
G1 X128.26 Y112.375 E6.66424
G1 X135.386 Y112.375 E7.33765
G1 X136.178 Y112.415 E7.41258
G1 X136.962 Y112.535 E7.48754
G1 X137.731 Y112.732 E7.56255
G1 X138.475 Y113.007 E7.63751
G1 X139.189 Y113.354 E7.71253
G1 X139.863 Y113.772 E7.78748
G1 X140.492 Y114.256 E7.86248
G1 X141.07 Y114.8 E7.93749
G1 X141.589 Y115.4 E8.01245
G1 X142.046 Y116.049 E8.08746
G1 X142.435 Y116.74 E8.1624
G1 X142.752 Y117.468 E8.23744
G1 X142.995 Y118.223 E8.31239
G1 X143.16 Y118.999 E8.38736
G1 X143.246 Y119.788 E8.46236
G1 X143.26 Y120.25 E8.50604
G1 X143.26 Y129.994 E9.42685
G1 X143.22 Y130.786 E9.50179
G1 X143.101 Y131.571 E9.57682
G1 X142.903 Y132.339 E9.65177
G1 X142.628 Y133.084 E9.72681
G1 X142.281 Y133.797 E9.80175
G1 X141.863 Y134.472 E9.87677
G1 X141.38 Y135.101 E9.95172
G1 X140.835 Y135.678 E10.02672
G1 X140.236 Y136.198 E10.10168
G1 X139.587 Y136.654 E10.17664
G1 X138.895 Y137.043 E10.25166
G1 X138.168 Y137.361 E10.32664
G1 X137.412 Y137.604 E10.40168
G1 X136.636 Y137.769 E10.47666
G1 X135.848 Y137.855 E10.55156
G1 X135.385 Y137.869 E10.59534
G1 X87.615 Y137.869 E15.1096
G1 X86.823 Y137.829 E15.18454
G1 X86.038 Y137.71 E15.25957
G1 X85.27 Y137.512 E15.33452
G1 X84.525 Y137.237 E15.40957
G1 X83.812 Y136.89 E15.4845
G1 X83.137 Y136.472 E15.55953
G1 X82.508 Y135.989 E15.63447
G1 X81.931 Y135.444 E15.70948
G1 X81.411 Y134.845 E15.78444
G1 X80.955 Y134.196 E15.85939
G1 X80.566 Y133.504 E15.93441
G1 X80.248 Y132.777 E16.0094
G1 X80.005 Y132.021 E16.08444
G1 X79.84 Y131.245 E16.15941
G1 X79.754 Y130.457 E16.23432
G1 X79.74 Y129.994 E16.27809
G1 X79.74 Y120.25 E17.1989
G1 X79.78 Y119.458 E17.27384
G1 X79.899 Y118.673 E17.34887
G1 X80.097 Y117.905 E17.42382
G1 X80.372 Y117.16 E17.49886
G1 X80.719 Y116.447 E17.5738
G1 X81.137 Y115.772 E17.64882
G1 X81.62 Y115.143 E17.72377
G1 X82.165 Y114.566 E17.79877
G1 X82.764 Y114.046 E17.87373
G1 X83.413 Y113.59 E17.94869
G1 X84.105 Y113.201 E18.02371
G1 X84.832 Y112.883 E18.09869
G1 X85.588 Y112.64 E18.17373
G1 X86.364 Y112.475 E18.24871
G1 X87.152 Y112.389 E18.32361
G1 X87.614 Y112.375 E18.36729
G1 X97.51 Y112.373 E19.30246
G1 X97.51 Y105.412 E19.96028
G1 X87.615 Y105.412 E20.89536
G1 X86.823 Y105.372 E20.9703
G1 X86.038 Y105.253 E21.04533
G1 X85.27 Y105.055 E21.12028
G1 X84.525 Y104.78 E21.19532
G1 X83.812 Y104.433 E21.27026
G1 X83.137 Y104.015 E21.34528
G1 X82.508 Y103.532 E21.42023
G1 X81.931 Y102.987 E21.49523
G1 X81.411 Y102.388 E21.57019
G1 X80.955 Y101.739 E21.64515
G1 X80.566 Y101.047 E21.72016
G1 X80.248 Y100.32 E21.79515
G1 X80.005 Y99.564 E21.87019
G1 X79.84 Y98.788 E21.94516
G1 X79.754 Y98 E22.02007
G1 X79.74 Y97.537 E22.06385
G1 X79.74 Y93.006 E22.49202
G1 X79.78 Y92.214 E22.56696
G1 X79.899 Y91.429 E22.64199
G1 X80.097 Y90.661 E22.71694
G1 X80.372 Y89.916 E22.79199
G1 X80.719 Y89.203 E22.86692
G1 X81.137 Y88.528 E22.94195
G1 X81.62 Y87.899 E23.01689
G1 X82.165 Y87.322 E23.0919
G0 F4500 X82.509 Y87.479
G1 F1800 X83.105 Y86.982 E23.16523
G1 X83.749 Y86.55 E23.23852
G1 X84.434 Y86.187 E23.31178
G1 X85.153 Y85.895 E23.38511
G1 X85.898 Y85.68 E23.45839
G1 X86.661 Y85.542 E23.53166
G1 X87.615 Y85.481 E23.622
G1 X120.385 Y85.481 E26.71876
G1 X121.16 Y85.521 E26.7921
G1 X121.926 Y85.64 E26.86535
G1 X122.676 Y85.838 E26.93866
G1 X123.402 Y86.112 E27.01199
G1 X124.095 Y86.459 E27.08523
G1 X124.749 Y86.876 E27.15852
G1 X125.357 Y87.358 E27.23184
G1 X125.912 Y87.9 E27.30515
G1 X126.409 Y88.496 E27.37849
G1 X126.841 Y89.14 E27.45177
G1 X127.204 Y89.825 E27.52503
G1 X127.496 Y90.544 E27.59836
G1 X127.711 Y91.289 E27.67164
G1 X127.849 Y92.052 E27.74491
G1 X127.91 Y93.006 E27.83525
G1 X127.91 Y112.725 E29.6987
G1 X135.386 Y112.725 E30.40518
G1 X136.16 Y112.765 E30.47842
G1 X136.926 Y112.885 E30.55169
G1 X137.676 Y113.082 E30.62497
G1 X138.402 Y113.356 E30.6983
G1 X139.096 Y113.704 E30.77166
G1 X139.75 Y114.12 E30.84491
G1 X140.358 Y114.602 E30.91823
G1 X140.913 Y115.144 E30.99154
G1 X141.409 Y115.74 E31.06481
G1 X141.841 Y116.384 E31.1381
G1 X142.205 Y117.069 E31.2114
G1 X142.496 Y117.788 E31.2847
G1 X142.712 Y118.533 E31.358
G1 X142.849 Y119.296 E31.43126
G1 X142.91 Y120.25 E31.5216
G1 X142.91 Y129.994 E32.4424
G1 X142.87 Y130.769 E32.51574
G1 X142.751 Y131.535 E32.58899
G1 X142.553 Y132.285 E32.6623
G1 X142.279 Y133.011 E32.73563
G1 X141.932 Y133.704 E32.80887
G1 X141.515 Y134.358 E32.88216
G1 X141.033 Y134.966 E32.95548
G1 X140.491 Y135.521 E33.02879
G1 X139.895 Y136.018 E33.10213
G1 X139.251 Y136.45 E33.17541
G1 X138.566 Y136.813 E33.24867
G1 X137.847 Y137.105 E33.32201
G1 X137.102 Y137.32 E33.39528
G1 X136.339 Y137.458 E33.46855
G1 X135.385 Y137.519 E33.55889
G1 X87.615 Y137.519 E38.07316
G1 X86.84 Y137.479 E38.14649
G1 X86.074 Y137.36 E38.21975
G1 X85.324 Y137.162 E38.29305
G1 X84.598 Y136.888 E38.36638
G1 X83.905 Y136.541 E38.43962
G1 X83.251 Y136.124 E38.51292
G1 X82.643 Y135.642 E38.58624
G1 X82.088 Y135.1 E38.65955
G1 X81.591 Y134.504 E38.73288
G1 X81.159 Y133.86 E38.80616
G1 X80.796 Y133.175 E38.87942
G1 X80.504 Y132.456 E38.95276
G1 X80.289 Y131.711 E39.02603
G1 X80.151 Y130.948 E39.09931
G1 X80.09 Y129.994 E39.18964
G1 X80.09 Y120.25 E40.11045
G1 X80.13 Y119.475 E40.18379
G1 X80.249 Y118.709 E40.25704
G1 X80.447 Y117.959 E40.33035
G1 X80.721 Y117.233 E40.40368
G1 X81.068 Y116.54 E40.47692
G1 X81.485 Y115.886 E40.55021
G1 X81.967 Y115.278 E40.62353
G1 X82.509 Y114.723 E40.69684
G1 X83.105 Y114.226 E40.77018
G1 X83.749 Y113.794 E40.84346
G1 X84.434 Y113.431 E40.91672
G1 X85.153 Y113.139 E40.99005
G1 X85.898 Y112.924 E41.06333
G1 X86.661 Y112.786 E41.1366
G1 X87.614 Y112.725 E41.22685
G1 X97.86 Y112.723 E42.19509
G1 X97.86 Y105.062 E42.91906
G1 X87.615 Y105.062 E43.88721
G1 X86.84 Y105.022 E43.96055
G1 X86.074 Y104.903 E44.0338
G1 X85.324 Y104.705 E44.1071
G1 X84.598 Y104.431 E44.18043
G1 X83.905 Y104.084 E44.25367
G1 X83.251 Y103.667 E44.32697
G1 X82.643 Y103.185 E44.40029
G1 X82.088 Y102.643 E44.4736
G1 X81.591 Y102.047 E44.54694
G1 X81.159 Y101.403 E44.62022
G1 X80.796 Y100.718 E44.69348
G1 X80.504 Y99.999 E44.76681
G1 X80.289 Y99.254 E44.84009
G1 X80.151 Y98.491 E44.91336
G1 X80.09 Y97.537 E45.0037
G1 X80.09 Y93.006 E45.43188
G1 X80.13 Y92.231 E45.50521
G1 X80.249 Y91.465 E45.57847
G1 X80.447 Y90.715 E45.65177
G1 X80.721 Y89.989 E45.7251
G1 X81.068 Y89.296 E45.79834
G1 X81.485 Y88.642 E45.87164
G1 X81.967 Y88.034 E45.94496
G1 X82.509 Y87.479 E46.01827
G0 F4500 X82.852 Y87.64
G1 F1800 X83.444 Y87.168 E46.08982
G1 X84.083 Y86.761 E46.16141
G1 X84.761 Y86.423 E46.233
G1 X85.47 Y86.159 E46.3045
G1 X86.204 Y85.971 E46.3761
G1 X86.953 Y85.862 E46.44762
G1 X87.615 Y85.831 E46.51025
G1 X120.385 Y85.831 E49.60702
G1 X121.141 Y85.871 E49.67856
G1 X121.889 Y85.99 E49.75013
G1 X122.62 Y86.188 E49.8217
G1 X123.327 Y86.462 E49.89336
G1 X124 Y86.808 E49.96487
G1 X124.633 Y87.224 E50.03645
G1 X125.219 Y87.704 E50.10803
G1 X125.751 Y88.243 E50.1796
G1 X126.223 Y88.835 E50.25115
G1 X126.63 Y89.474 E50.32274
G1 X126.968 Y90.152 E50.39433
G1 X127.232 Y90.861 E50.46583
G1 X127.42 Y91.595 E50.53743
G1 X127.529 Y92.344 E50.60896
G1 X127.56 Y93.006 E50.67158
G1 X127.56 Y113.074 E52.56801
G1 X135.385 Y113.075 E53.30747
G1 X136.142 Y113.115 E53.37911
G1 X136.89 Y113.235 E53.4507
G1 X137.621 Y113.432 E53.52224
G1 X138.327 Y113.706 E53.59381
G1 X139 Y114.052 E53.66532
G1 X139.634 Y114.468 E53.73698
G1 X140.219 Y114.948 E53.80849
G1 X140.751 Y115.487 E53.88005
G1 X141.223 Y116.079 E53.9516
G1 X141.63 Y116.718 E54.0232
G1 X141.968 Y117.396 E54.09479
G1 X142.232 Y118.106 E54.16637
G1 X142.42 Y118.84 E54.23797
G1 X142.529 Y119.589 E54.3095
G1 X142.56 Y120.25 E54.37203
G1 X142.56 Y129.994 E55.29284
G1 X142.52 Y130.75 E55.36438
G1 X142.401 Y131.498 E55.43596
G1 X142.203 Y132.229 E55.50753
G1 X141.929 Y132.936 E55.57918
G1 X141.583 Y133.609 E55.65069
G1 X141.167 Y134.242 E55.72227
G1 X140.687 Y134.828 E55.79385
G1 X140.148 Y135.36 E55.86542
G1 X139.556 Y135.832 E55.93697
G1 X138.917 Y136.239 E56.00856
G1 X138.239 Y136.577 E56.08016
G1 X137.53 Y136.841 E56.15165
G1 X136.796 Y137.029 E56.22325
G1 X136.047 Y137.138 E56.29478
G1 X135.385 Y137.169 E56.35741
G1 X87.615 Y137.169 E60.87167
G1 X86.859 Y137.129 E60.94321
G1 X86.111 Y137.01 E61.01479
G1 X85.38 Y136.812 E61.08636
G1 X84.673 Y136.538 E61.15801
G1 X84 Y136.192 E61.22952
G1 X83.367 Y135.776 E61.3011
G1 X82.781 Y135.296 E61.37268
G1 X82.249 Y134.757 E61.44425
G1 X81.777 Y134.165 E61.5158
G1 X81.37 Y133.526 E61.5874
G1 X81.032 Y132.848 E61.65899
G1 X80.768 Y132.139 E61.73048
G1 X80.58 Y131.405 E61.80208
G1 X80.471 Y130.656 E61.87361
G1 X80.44 Y129.994 E61.93624
G1 X80.44 Y120.25 E62.85704
G1 X80.48 Y119.494 E62.92859
G1 X80.599 Y118.746 E63.00016
G1 X80.797 Y118.015 E63.07173
G1 X81.071 Y117.308 E63.14338
G1 X81.417 Y116.635 E63.2149
G1 X81.833 Y116.002 E63.28648
G1 X82.313 Y115.416 E63.35806
G1 X82.852 Y114.884 E63.42963
G1 X83.444 Y114.412 E63.50117
G1 X84.083 Y114.005 E63.57277
G1 X84.761 Y113.667 E63.64436
G1 X85.47 Y113.403 E63.71585
G1 X86.204 Y113.215 E63.78746
G1 X86.953 Y113.106 E63.85898
G1 X87.614 Y113.075 E63.92152
G1 X98.21 Y113.073 E64.92284
G1 X98.21 Y104.712 E65.71295
G1 X87.615 Y104.712 E66.71418
G1 X86.859 Y104.672 E66.78572
G1 X86.111 Y104.553 E66.8573
G1 X85.38 Y104.355 E66.92887
G1 X84.673 Y104.081 E67.00052
G1 X84 Y103.735 E67.07203
G1 X83.367 Y103.319 E67.14361
G1 X82.781 Y102.839 E67.21519
G1 X82.249 Y102.3 E67.28676
G1 X81.777 Y101.708 E67.35831
G1 X81.37 Y101.069 E67.4299
G1 X81.032 Y100.391 E67.50149
G1 X80.768 Y99.682 E67.57299
G1 X80.58 Y98.948 E67.64459
G1 X80.471 Y98.199 E67.71612
G1 X80.44 Y97.537 E67.77875
G1 X80.44 Y93.006 E68.20692
G1 X80.48 Y92.25 E68.27847
G1 X80.599 Y91.502 E68.35004
G1 X80.797 Y90.771 E68.42161
G1 X81.071 Y90.064 E68.49326
G1 X81.417 Y89.391 E68.56477
G1 X81.833 Y88.758 E68.63635
G1 X82.313 Y88.172 E68.70794
G1 X82.852 Y87.64 E68.77951
G0 F4500 X82.658 Y88.314
G1 F1800 X83.194 Y87.806 E68.84929
G1 X83.782 Y87.359 E68.91909
G1 X84.415 Y86.978 E68.98891
G1 X85.085 Y86.667 E69.05871
G1 X85.785 Y86.431 E69.12852
G1 X86.506 Y86.272 E69.19829
G1 X87.241 Y86.191 E69.26817
G1 X87.615 Y86.181 E69.30353
G1 X120.385 Y86.181 E72.40029
G1 X121.123 Y86.221 E72.47013
G1 X121.851 Y86.34 E72.53984
G1 X122.563 Y86.538 E72.60968
G1 X123.249 Y86.811 E72.67945
G1 X123.902 Y87.157 E72.74929
G1 X124.514 Y87.571 E72.81911
G1 X125.077 Y88.049 E72.88891
G1 X125.585 Y88.585 E72.95869
G1 X126.032 Y89.173 E73.02849
G1 X126.413 Y89.806 E73.09831
G1 X126.724 Y90.476 E73.16811
G1 X126.96 Y91.176 E73.23792
G1 X127.119 Y91.897 E73.30769
G1 X127.2 Y92.632 E73.37757
G1 X127.21 Y93.006 E73.41293
G1 X127.21 Y113.424 E75.34243
G1 X135.385 Y113.425 E76.11497
G1 X136.123 Y113.465 E76.18481
G1 X136.852 Y113.585 E76.25463
G1 X137.564 Y113.782 E76.32444
G1 X138.25 Y114.055 E76.39421
G1 X138.903 Y114.401 E76.46405
G1 X139.514 Y114.816 E76.53384
G1 X140.077 Y115.294 E76.60364
G1 X140.585 Y115.83 E76.67342
G1 X141.032 Y116.418 E76.74322
G1 X141.414 Y117.05 E76.81301
G1 X141.724 Y117.721 E76.88286
G1 X141.96 Y118.421 E76.95267
G1 X142.119 Y119.142 E77.02244
G1 X142.2 Y119.876 E77.09222
G1 X142.21 Y120.25 E77.12758
G1 X142.21 Y129.994 E78.04839
G1 X142.17 Y130.732 E78.11823
G1 X142.051 Y131.46 E78.18794
G1 X141.853 Y132.172 E78.25778
G1 X141.58 Y132.858 E78.32755
G1 X141.234 Y133.511 E78.39738
G1 X140.82 Y134.123 E78.46721
G1 X140.342 Y134.686 E78.537
G1 X139.806 Y135.194 E78.60679
G1 X139.218 Y135.641 E78.67659
G1 X138.585 Y136.022 E78.7464
G1 X137.915 Y136.333 E78.81621
G1 X137.215 Y136.569 E78.88602
G1 X136.494 Y136.728 E78.95579
G1 X135.759 Y136.809 E79.02567
G1 X135.385 Y136.819 E79.06102
G1 X87.615 Y136.819 E83.57529
G1 X86.877 Y136.779 E83.64513
G1 X86.149 Y136.66 E83.71484
G1 X85.437 Y136.462 E83.78468
G1 X84.751 Y136.189 E83.85445
G1 X84.098 Y135.843 E83.92428
G1 X83.486 Y135.429 E83.99411
G1 X82.923 Y134.951 E84.0639
G1 X82.415 Y134.415 E84.13369
G1 X81.968 Y133.827 E84.20349
G1 X81.587 Y133.194 E84.2733
G1 X81.276 Y132.524 E84.34311
G1 X81.04 Y131.824 E84.41292
G1 X80.881 Y131.103 E84.48269
G1 X80.8 Y130.368 E84.55257
G1 X80.79 Y129.994 E84.58792
G1 X80.79 Y120.25 E85.50873
G1 X80.83 Y119.512 E85.57857
G1 X80.949 Y118.784 E85.64828
G1 X81.147 Y118.072 E85.71812
G1 X81.42 Y117.386 E85.78789
G1 X81.766 Y116.733 E85.85773
G1 X82.18 Y116.121 E85.92755
G1 X82.658 Y115.558 E85.99734
G1 X83.194 Y115.05 E86.06713
G1 X83.782 Y114.603 E86.13693
G1 X84.415 Y114.222 E86.20675
G1 X85.085 Y113.911 E86.27655
G1 X85.785 Y113.675 E86.34636
G1 X86.506 Y113.516 E86.41613
G1 X87.241 Y113.435 E86.48601
G1 X87.614 Y113.425 E86.52127
G1 X98.56 Y113.423 E87.55567
G1 X98.56 Y104.362 E88.41193
G1 X87.615 Y104.362 E89.44623
G1 X86.877 Y104.322 E89.51608
G1 X86.149 Y104.203 E89.58579
G1 X85.437 Y104.005 E89.65562
G1 X84.751 Y103.732 E89.7254
G1 X84.098 Y103.386 E89.79523
G1 X83.486 Y102.972 E89.86506
G1 X82.923 Y102.494 E89.93485
G1 X82.415 Y101.958 E90.00464
G1 X81.968 Y101.37 E90.07443
G1 X81.587 Y100.737 E90.14425
G1 X81.276 Y100.067 E90.21406
G1 X81.04 Y99.367 E90.28386
G1 X80.881 Y98.646 E90.35364
G1 X80.8 Y97.911 E90.42351
G1 X80.79 Y97.537 E90.45887
G1 X80.79 Y93.006 E90.88705
G1 X80.83 Y92.268 E90.95689
G1 X80.949 Y91.54 E91.0266
G1 X81.147 Y90.828 E91.09644
G1 X81.42 Y90.142 E91.16621
G1 X81.766 Y89.489 E91.23605
G1 X82.18 Y88.877 E91.30587
G1 X82.658 Y88.314 E91.37566
G0 F4500 X83.004 Y88.461
G1 F1800 X83.536 Y87.977 E91.44363
G1 X84.119 Y87.556 E91.51159
G1 X84.746 Y87.202 E91.57963
G1 X85.407 Y86.919 E91.64758
G1 X86.096 Y86.712 E91.71556
G1 X86.804 Y86.582 E91.78359
G1 X87.615 Y86.531 E91.86038
G1 X120.385 Y86.531 E94.95714
G1 X121.103 Y86.571 E95.0251
G1 X121.813 Y86.69 E95.09313
G1 X122.505 Y86.888 E95.16115
G1 X123.17 Y87.161 E95.22908
G1 X123.802 Y87.506 E95.29712
G1 X124.391 Y87.919 E95.3651
G1 X124.93 Y88.395 E95.43306
G1 X125.414 Y88.927 E95.50103
G1 X125.835 Y89.51 E95.56898
G1 X126.189 Y90.137 E95.63702
G1 X126.472 Y90.798 E95.70497
G1 X126.679 Y91.487 E95.77296
G1 X126.809 Y92.195 E95.84098
G1 X126.86 Y93.006 E95.91777
G1 X126.86 Y113.774 E97.88035
G1 X135.385 Y113.775 E98.68596
G1 X136.104 Y113.815 E98.75401
G1 X136.813 Y113.934 E98.82195
G1 X137.505 Y114.132 E98.88997
G1 X138.171 Y114.405 E98.95799
G1 X138.802 Y114.75 E99.02595
G1 X139.391 Y115.163 E99.09393
G1 X139.931 Y115.639 E99.16195
G1 X140.414 Y116.172 E99.22993
G1 X140.836 Y116.755 E99.29794
G1 X141.19 Y117.381 E99.3659
G1 X141.472 Y118.043 E99.4339
G1 X141.679 Y118.732 E99.50188
G1 X141.809 Y119.439 E99.56982
G1 X141.86 Y120.25 E99.64661
G1 X141.86 Y129.994 E100.56741
G1 X141.82 Y130.712 E100.63537
G1 X141.701 Y131.422 E100.7034
G1 X141.503 Y132.114 E100.77142
G1 X141.23 Y132.779 E100.83935
G1 X140.885 Y133.411 E100.90739
G1 X140.472 Y134 E100.97538
G1 X139.996 Y134.539 E101.04333
G1 X139.464 Y135.023 E101.1113
G1 X138.881 Y135.444 E101.17925
G1 X138.254 Y135.798 E101.2473
G1 X137.593 Y136.081 E101.31524
G1 X136.904 Y136.288 E101.38323
G1 X136.196 Y136.418 E101.45125
G1 X135.385 Y136.469 E101.52805
G1 X87.615 Y136.469 E106.04231
G1 X86.897 Y136.429 E106.11027
G1 X86.187 Y136.31 E106.1783
G1 X85.495 Y136.112 E106.24632
G1 X84.83 Y135.839 E106.31425
G1 X84.198 Y135.494 E106.38229
G1 X83.609 Y135.081 E106.45027
G1 X83.07 Y134.605 E106.51823
