;FLAVOR:UltiGCode
;TIME:1453
;MATERIAL:2548
;MATERIAL2:0
;NOZZLE_DIAMETER:0.4
;Generated with Cura_SteamEngine 3.2.1
M82 ;absolute extrusion mode

;LAYER_COUNT:134
;LAYER:0
M107
G0 F4500 X96.05 Y95.816 Z0.27
;TYPE:SKIRT
G1 F1800 X96.649 Y95.296 E0.07496
G1 X97.298 Y94.84 E0.14992
G1 X97.99 Y94.451 E0.22493
G1 X98.717 Y94.133 E0.29992
G1 X99.473 Y93.89 E0.37496
G1 X100.249 Y93.725 E0.44993
G1 X101.037 Y93.639 E0.52484
G1 X101.5 Y93.625 E0.56861
G1 X121.5 Y93.625 E2.45861
G1 X122.292 Y93.665 E2.53355
G1 X123.077 Y93.784 E2.60858
G1 X123.845 Y93.982 E2.68353
G1 X124.59 Y94.257 E2.75858
G1 X125.303 Y94.604 E2.83351
G1 X125.978 Y95.022 E2.90854
G1 X126.607 Y95.505 E2.98348
G1 X127.184 Y96.05 E3.05849
G1 X127.704 Y96.649 E3.13345
G1 X128.16 Y97.298 E3.2084
G1 X128.549 Y97.99 E3.28342
G1 X128.867 Y98.717 E3.35841
G1 X129.11 Y99.473 E3.43345
G1 X129.275 Y100.249 E3.50842
G1 X129.361 Y101.037 E3.58333
G1 X129.375 Y101.5 E3.6271
G1 X129.375 Y121.5 E5.5171
G1 X129.335 Y122.292 E5.59204
G1 X129.216 Y123.077 E5.66707
G1 X129.018 Y123.845 E5.74202
G1 X128.743 Y124.59 E5.81707
G1 X128.396 Y125.303 E5.892
G1 X127.978 Y125.978 E5.96703
G1 X127.495 Y126.607 E6.04197
G1 X126.95 Y127.184 E6.11698
G1 X126.351 Y127.704 E6.19194
G1 X125.702 Y128.16 E6.26689
G1 X125.01 Y128.549 E6.34191
G1 X124.283 Y128.867 E6.4169
G1 X123.527 Y129.11 E6.49194
G1 X122.751 Y129.275 E6.56691
G1 X121.963 Y129.361 E6.64182
G1 X121.5 Y129.375 E6.68559
G1 X101.5 Y129.375 E8.57559
G1 X100.708 Y129.335 E8.65053
G1 X99.923 Y129.216 E8.72556
G1 X99.155 Y129.018 E8.80051
G1 X98.41 Y128.743 E8.87556
G1 X97.697 Y128.396 E8.95049
G1 X97.022 Y127.978 E9.02552
G1 X96.393 Y127.495 E9.10046
G1 X95.816 Y126.95 E9.17547
G1 X95.296 Y126.351 E9.25043
G1 X94.84 Y125.702 E9.32538
G1 X94.451 Y125.01 E9.4004
G1 X94.133 Y124.283 E9.47539
G1 X93.89 Y123.527 E9.55043
G1 X93.725 Y122.751 E9.6254
G1 X93.639 Y121.963 E9.70031
G1 X93.625 Y121.5 E9.74408
G1 X93.625 Y101.5 E11.63408
G1 X93.665 Y100.708 E11.70902
G1 X93.784 Y99.923 E11.78405
G1 X93.982 Y99.155 E11.859
G1 X94.257 Y98.41 E11.93404
G1 X94.604 Y97.697 E12.00898
G1 X95.022 Y97.022 E12.08401
G1 X95.505 Y96.393 E12.15895
G1 X96.05 Y95.816 E12.23395
G0 F4500 X96.394 Y95.973
G1 F1800 X96.99 Y95.476 E12.30729
G1 X97.634 Y95.044 E12.38057
G1 X98.319 Y94.681 E12.45383
G1 X99.038 Y94.389 E12.52717
G1 X99.783 Y94.174 E12.60044
G1 X100.546 Y94.036 E12.67372
G1 X101.5 Y93.975 E12.76405
G1 X121.5 Y93.975 E14.65405
G1 X122.275 Y94.015 E14.72739
G1 X123.041 Y94.134 E14.80064
G1 X123.791 Y94.332 E14.87395
G1 X124.517 Y94.606 E14.94728
G1 X125.21 Y94.953 E15.02052
G1 X125.864 Y95.37 E15.09381
G1 X126.472 Y95.852 E15.16713
G1 X127.027 Y96.394 E15.24044
G1 X127.524 Y96.99 E15.31378
G1 X127.956 Y97.634 E15.38706
G1 X128.319 Y98.319 E15.46032
G1 X128.611 Y99.038 E15.53365
G1 X128.826 Y99.783 E15.60693
G1 X128.964 Y100.546 E15.6802
G1 X129.025 Y101.5 E15.77054
G1 X129.025 Y121.5 E17.66054
G1 X128.985 Y122.275 E17.73388
G1 X128.866 Y123.041 E17.80713
G1 X128.668 Y123.791 E17.88043
G1 X128.394 Y124.517 E17.95376
G1 X128.047 Y125.21 E18.027
G1 X127.63 Y125.864 E18.1003
G1 X127.148 Y126.472 E18.17362
G1 X126.606 Y127.027 E18.24693
G1 X126.01 Y127.524 E18.32027
G1 X125.366 Y127.956 E18.39355
G1 X124.681 Y128.319 E18.46681
G1 X123.962 Y128.611 E18.54014
G1 X123.217 Y128.826 E18.61342
G1 X122.454 Y128.964 E18.68669
G1 X121.5 Y129.025 E18.77703
G1 X101.5 Y129.025 E20.66703
G1 X100.725 Y128.985 E20.74036
G1 X99.959 Y128.866 E20.81362
G1 X99.209 Y128.668 E20.88692
G1 X98.483 Y128.394 E20.96025
G1 X97.79 Y128.047 E21.03349
G1 X97.136 Y127.63 E21.10679
G1 X96.528 Y127.148 E21.18011
G1 X95.973 Y126.606 E21.25342
G1 X95.476 Y126.01 E21.32675
G1 X95.044 Y125.366 E21.40004
G1 X94.681 Y124.681 E21.4733
G1 X94.389 Y123.962 E21.54663
G1 X94.174 Y123.217 E21.61991
G1 X94.036 Y122.454 E21.69318
G1 X93.975 Y121.5 E21.78352
G1 X93.975 Y101.5 E23.67352
G1 X94.015 Y100.725 E23.74685
G1 X94.134 Y99.959 E23.82011
G1 X94.332 Y99.209 E23.89341
G1 X94.606 Y98.483 E23.96674
G1 X94.953 Y97.79 E24.03998
G1 X95.37 Y97.136 E24.11328
G1 X95.852 Y96.528 E24.1866
G1 X96.394 Y95.973 E24.25991
G0 F4500 X96.737 Y96.134
G1 F1800 X97.329 Y95.662 E24.33146
G1 X97.968 Y95.255 E24.40305
G1 X98.646 Y94.917 E24.47464
G1 X99.355 Y94.653 E24.54614
G1 X100.089 Y94.465 E24.61774
G1 X100.838 Y94.356 E24.68926
G1 X101.5 Y94.325 E24.75189
G1 X121.5 Y94.325 E26.64189
G1 X122.256 Y94.365 E26.71343
G1 X123.004 Y94.484 E26.78501
G1 X123.735 Y94.682 E26.85658
G1 X124.442 Y94.956 E26.92823
G1 X125.115 Y95.302 E26.99974
G1 X125.748 Y95.718 E27.07132
G1 X126.334 Y96.198 E27.1429
G1 X126.866 Y96.737 E27.21447
G1 X127.338 Y97.329 E27.28602
G1 X127.745 Y97.968 E27.35761
G1 X128.083 Y98.646 E27.42921
G1 X128.347 Y99.355 E27.5007
G1 X128.535 Y100.089 E27.5723
G1 X128.644 Y100.838 E27.64383
G1 X128.675 Y101.5 E27.70646
G1 X128.675 Y121.5 E29.59646
G1 X128.635 Y122.256 E29.668
G1 X128.516 Y123.004 E29.73957
G1 X128.318 Y123.735 E29.81114
G1 X128.044 Y124.442 E29.8828
G1 X127.698 Y125.115 E29.95431
G1 X127.282 Y125.748 E30.02589
G1 X126.802 Y126.334 E30.09747
G1 X126.263 Y126.866 E30.16904
G1 X125.671 Y127.338 E30.24059
G1 X125.032 Y127.745 E30.31218
G1 X124.354 Y128.083 E30.38377
G1 X123.645 Y128.347 E30.45527
G1 X122.911 Y128.535 E30.52687
G1 X122.162 Y128.644 E30.59839
G1 X121.5 Y128.675 E30.66102
G1 X101.5 Y128.675 E32.55102
G1 X100.744 Y128.635 E32.62256
G1 X99.996 Y128.516 E32.69414
G1 X99.265 Y128.318 E32.76571
G1 X98.558 Y128.044 E32.83736
G1 X97.885 Y127.698 E32.90887
G1 X97.252 Y127.282 E32.98045
G1 X96.666 Y126.802 E33.05204
G1 X96.134 Y126.263 E33.1236
G1 X95.662 Y125.671 E33.19515
G1 X95.255 Y125.032 E33.26675
G1 X94.917 Y124.354 E33.33834
G1 X94.653 Y123.645 E33.40983
G1 X94.465 Y122.911 E33.48143
G1 X94.356 Y122.162 E33.55296
G1 X94.325 Y121.5 E33.61559
G1 X94.325 Y101.5 E35.50559
G1 X94.365 Y100.744 E35.57713
G1 X94.484 Y99.996 E35.6487
G1 X94.682 Y99.265 E35.72027
G1 X94.956 Y98.558 E35.79193
G1 X95.302 Y97.885 E35.86344
G1 X95.718 Y97.252 E35.93502
G1 X96.198 Y96.666 E36.0066
G1 X96.737 Y96.134 E36.07817
G0 F4500 X96.543 Y96.808
G1 F1800 X97.079 Y96.3 E36.14795
G1 X97.667 Y95.853 E36.21775
G1 X98.3 Y95.472 E36.28757
G1 X98.97 Y95.161 E36.35738
G1 X99.67 Y94.925 E36.42718
G1 X100.391 Y94.766 E36.49696
G1 X101.126 Y94.685 E36.56683
G1 X101.5 Y94.675 E36.60219
G1 X121.5 Y94.675 E38.49219
G1 X122.238 Y94.715 E38.56203
G1 X122.966 Y94.834 E38.63174
G1 X123.678 Y95.032 E38.70158
G1 X124.364 Y95.305 E38.77135
G1 X125.017 Y95.651 E38.84119
G1 X125.629 Y96.065 E38.91101
G1 X126.192 Y96.543 E38.9808
G1 X126.7 Y97.079 E39.05059
G1 X127.147 Y97.667 E39.12039
G1 X127.528 Y98.3 E39.19021
G1 X127.839 Y98.97 E39.26001
G1 X128.075 Y99.67 E39.32982
G1 X128.234 Y100.391 E39.39959
G1 X128.315 Y101.126 E39.46947
G1 X128.325 Y101.5 E39.50482
G1 X128.325 Y121.5 E41.39482
G1 X128.285 Y122.238 E41.46467
G1 X128.166 Y122.966 E41.53438
G1 X127.968 Y123.678 E41.60421
G1 X127.695 Y124.364 E41.67399
G1 X127.349 Y125.017 E41.74382
G1 X126.935 Y125.629 E41.81365
G1 X126.457 Y126.192 E41.88344
G1 X125.921 Y126.7 E41.95322
G1 X125.333 Y127.147 E42.02302
G1 X124.7 Y127.528 E42.09284
G1 X124.03 Y127.839 E42.16265
G1 X123.33 Y128.075 E42.23245
G1 X122.609 Y128.234 E42.30223
G1 X121.874 Y128.315 E42.3721
G1 X121.5 Y128.325 E42.40746
G1 X101.5 Y128.325 E44.29746
G1 X100.762 Y128.285 E44.3673
G1 X100.034 Y128.166 E44.43701
G1 X99.322 Y127.968 E44.50685
G1 X98.636 Y127.695 E44.57662
G1 X97.983 Y127.349 E44.64646
G1 X97.371 Y126.935 E44.71628
G1 X96.808 Y126.457 E44.78607
G1 X96.3 Y125.921 E44.85586
G1 X95.853 Y125.333 E44.92566
G1 X95.472 Y124.7 E44.99548
G1 X95.161 Y124.03 E45.06528
G1 X94.925 Y123.33 E45.13509
G1 X94.766 Y122.609 E45.20486
G1 X94.685 Y121.874 E45.27474
G1 X94.675 Y121.5 E45.31009
G1 X94.675 Y101.5 E47.20009
G1 X94.715 Y100.762 E47.26994
G1 X94.834 Y100.034 E47.33965
G1 X95.032 Y99.322 E47.40948
G1 X95.305 Y98.636 E47.47926
G1 X95.651 Y97.983 E47.54909
G1 X96.065 Y97.371 E47.61892
G1 X96.543 Y96.808 E47.68871
G0 F4500 X96.889 Y96.955
G1 F1800 X97.421 Y96.471 E47.75667
G1 X98.004 Y96.05 E47.82463
G1 X98.631 Y95.696 E47.89267
G1 X99.292 Y95.413 E47.96062
G1 X99.981 Y95.206 E48.02861
G1 X100.689 Y95.076 E48.09663
G1 X101.5 Y95.025 E48.17342
G1 X121.5 Y95.025 E50.06342
G1 X122.218 Y95.065 E50.13138
G1 X122.928 Y95.184 E50.19941
G1 X123.62 Y95.382 E50.26743
G1 X124.285 Y95.655 E50.33536
G1 X124.917 Y96 E50.4034
G1 X125.506 Y96.413 E50.47138
G1 X126.045 Y96.889 E50.53934
G1 X126.529 Y97.421 E50.60731
G1 X126.95 Y98.004 E50.67526
G1 X127.304 Y98.631 E50.74331
G1 X127.587 Y99.292 E50.81125
G1 X127.794 Y99.981 E50.87924
G1 X127.924 Y100.689 E50.94726
G1 X127.975 Y101.5 E51.02405
G1 X127.975 Y121.5 E52.91405
G1 X127.935 Y122.218 E52.98201
G1 X127.816 Y122.928 E53.05004
G1 X127.618 Y123.62 E53.11806
G1 X127.345 Y124.285 E53.18599
G1 X127 Y124.917 E53.25404
G1 X126.587 Y125.506 E53.32202
G1 X126.111 Y126.045 E53.38997
G1 X125.579 Y126.529 E53.45794
G1 X124.996 Y126.95 E53.52589
G1 X124.369 Y127.304 E53.59394
G1 X123.708 Y127.587 E53.66188
G1 X123.019 Y127.794 E53.72987
G1 X122.311 Y127.924 E53.79789
G1 X121.5 Y127.975 E53.87469
G1 X101.5 Y127.975 E55.76469
G1 X100.782 Y127.935 E55.83264
G1 X100.072 Y127.816 E55.90067
G1 X99.38 Y127.618 E55.96869
G1 X98.715 Y127.345 E56.03662
G1 X98.083 Y127 E56.10467
G1 X97.494 Y126.587 E56.17265
G1 X96.955 Y126.111 E56.2406
G1 X96.471 Y125.579 E56.30857
G1 X96.05 Y124.996 E56.37652
G1 X95.696 Y124.369 E56.44457
G1 X95.413 Y123.708 E56.51252
G1 X95.206 Y123.019 E56.5805
G1 X95.076 Y122.311 E56.64853
G1 X95.025 Y121.5 E56.72532
G1 X95.025 Y101.5 E58.61532
G1 X95.065 Y100.782 E58.68327
G1 X95.184 Y100.072 E58.7513
G1 X95.382 Y99.38 E58.81932
G1 X95.655 Y98.715 E58.88725
G1 X96 Y98.083 E58.9553
G1 X96.413 Y97.494 E59.02328
G1 X96.889 Y96.955 E59.09123
G0 F4500 X97.233 Y97.106
G1 F1800 X97.762 Y96.648 E59.15735
G1 X98.34 Y96.253 E59.22351
G1 X98.959 Y95.927 E59.28962
G1 X99.611 Y95.673 E59.35575
G1 X100.288 Y95.496 E59.42188
G1 X100.981 Y95.397 E59.48803
G1 X101.5 Y95.375 E59.53712
G1 X121.5 Y95.375 E61.42712
G1 X122.199 Y95.415 E61.49328
G1 X122.888 Y95.534 E61.55936
G1 X123.559 Y95.732 E61.62547
G1 X124.204 Y96.004 E61.69162
G1 X124.813 Y96.348 E61.75772
G1 X125.379 Y96.76 E61.82387
G1 X125.894 Y97.233 E61.88995
G1 X126.352 Y97.762 E61.95608
G1 X126.747 Y98.34 E62.02223
G1 X127.073 Y98.959 E62.08835
G1 X127.327 Y99.611 E62.15447
G1 X127.504 Y100.288 E62.2206
G1 X127.603 Y100.981 E62.28675
G1 X127.625 Y101.5 E62.33584
G1 X127.625 Y121.5 E64.22584
G1 X127.585 Y122.199 E64.292
G1 X127.466 Y122.888 E64.35808
G1 X127.268 Y123.559 E64.42419
G1 X126.996 Y124.204 E64.49034
G1 X126.652 Y124.813 E64.55644
G1 X126.24 Y125.379 E64.62259
G1 X125.767 Y125.894 E64.68867
G1 X125.238 Y126.352 E64.7548
G1 X124.66 Y126.747 E64.82095
G1 X124.041 Y127.073 E64.88707
G1 X123.389 Y127.327 E64.95319
G1 X122.712 Y127.504 E65.01932
G1 X122.019 Y127.603 E65.08547
G1 X121.5 Y127.625 E65.13456
G1 X101.5 Y127.625 E67.02456
G1 X100.801 Y127.585 E67.09072
G1 X100.112 Y127.466 E67.1568
G1 X99.441 Y127.268 E67.22291
G1 X98.796 Y126.996 E67.28906
G1 X98.187 Y126.652 E67.35516
G1 X97.621 Y126.24 E67.42132
G1 X97.106 Y125.767 E67.4874
G1 X96.648 Y125.238 E67.55352
G1 X96.253 Y124.66 E67.61968
G1 X95.927 Y124.041 E67.68579
G1 X95.673 Y123.389 E67.75191
G1 X95.496 Y122.712 E67.81804
G1 X95.397 Y122.019 E67.88419
G1 X95.375 Y121.5 E67.93328
G1 X95.375 Y101.5 E69.82328
G1 X95.415 Y100.801 E69.88945
G1 X95.534 Y100.112 E69.95552
G1 X95.732 Y99.441 E70.02163
G1 X96.004 Y98.796 E70.08778
G1 X96.348 Y98.187 E70.15388
G1 X96.76 Y97.621 E70.22004
G1 X97.233 Y97.106 E70.28612
G0 F4500 X97.577 Y97.262
G1 F1800 X98.102 Y96.831 E70.35031
G1 X98.674 Y96.464 E70.41453
G1 X99.285 Y96.167 E70.47873
G1 X99.927 Y95.943 E70.54298
G1 X100.59 Y95.797 E70.60714
G1 X101.5 Y95.725 E70.6934
G1 X121.5 Y95.725 E72.5834
G1 X122.178 Y95.765 E72.64759
G1 X122.847 Y95.884 E72.7118
G1 X123.497 Y96.081 E72.77598
G1 X124.12 Y96.353 E72.84022
G1 X124.706 Y96.697 E72.90444
G1 X125.248 Y97.107 E72.96866
G1 X125.738 Y97.577 E73.03282
G1 X126.169 Y98.102 E73.09701
G1 X126.536 Y98.674 E73.16123
G1 X126.833 Y99.285 E73.22543
G1 X127.057 Y99.927 E73.28969
G1 X127.203 Y100.59 E73.35384
G1 X127.275 Y101.5 E73.44011
G1 X127.275 Y121.5 E75.33011
G1 X127.235 Y122.178 E75.39429
G1 X127.116 Y122.847 E75.4585
G1 X126.919 Y123.497 E75.52269
G1 X126.647 Y124.12 E75.58693
G1 X126.303 Y124.706 E75.65114
G1 X125.893 Y125.248 E75.71536
G1 X125.423 Y125.738 E75.77953
G1 X124.898 Y126.169 E75.84372
G1 X124.326 Y126.536 E75.90794
G1 X123.715 Y126.833 E75.97214
G1 X123.073 Y127.057 E76.03639
G1 X122.41 Y127.203 E76.10055
G1 X121.5 Y127.275 E76.18681
G1 X101.5 Y127.275 E78.07681
G1 X100.822 Y127.235 E78.141
G1 X100.153 Y127.116 E78.20521
G1 X99.503 Y126.919 E78.26939
G1 X98.88 Y126.647 E78.33363
G1 X98.294 Y126.303 E78.39785
G1 X97.752 Y125.893 E78.46207
G1 X97.262 Y125.423 E78.52623
G1 X96.831 Y124.898 E78.59042
G1 X96.464 Y124.326 E78.65464
G1 X96.167 Y123.715 E78.71884
G1 X95.943 Y123.073 E78.7831
G1 X95.797 Y122.41 E78.84725
G1 X95.725 Y121.5 E78.93352
G1 X95.725 Y101.5 E80.82352
G1 X95.765 Y100.822 E80.8877
G1 X95.884 Y100.153 E80.95191
G1 X96.081 Y99.503 E81.0161
G1 X96.353 Y98.88 E81.08034
G1 X96.697 Y98.294 E81.14455
G1 X97.107 Y97.752 E81.20877
G1 X97.577 Y97.262 E81.27294
G0 F4500 X97.92 Y97.424
G1 F1800 X98.441 Y97.02 E81.33524
G1 X99.006 Y96.682 E81.39746
G1 X99.608 Y96.416 E81.45965
G1 X100.238 Y96.224 E81.52189
G1 X100.886 Y96.11 E81.58407
G1 X101.5 Y96.075 E81.64218
G1 X121.5 Y96.075 E83.53218
G1 X122.157 Y96.115 E83.59438
G1 X122.805 Y96.234 E83.65664
G1 X123.433 Y96.431 E83.71884
G1 X124.033 Y96.703 E83.7811
G1 X124.596 Y97.045 E83.84335
G1 X125.113 Y97.453 E83.90558
G1 X125.576 Y97.92 E83.96773
G1 X125.98 Y98.441 E84.03003
G1 X126.318 Y99.006 E84.09225
G1 X126.584 Y99.608 E84.15444
G1 X126.776 Y100.238 E84.21668
G1 X126.89 Y100.886 E84.27886
G1 X126.925 Y101.5 E84.33698
G1 X126.925 Y121.5 E86.22698
G1 X126.885 Y122.157 E86.28918
G1 X126.766 Y122.805 E86.35144
G1 X126.569 Y123.433 E86.41364
G1 X126.297 Y124.033 E86.47589
G1 X125.955 Y124.596 E86.53814
G1 X125.547 Y125.113 E86.60038
G1 X125.08 Y125.576 E86.66252
G1 X124.559 Y125.98 E86.72482
G1 X123.994 Y126.318 E86.78704
G1 X123.392 Y126.584 E86.84924
G1 X122.762 Y126.776 E86.91148
G1 X122.114 Y126.89 E86.97365
G1 X121.5 Y126.925 E87.03177
G1 X101.5 Y126.925 E88.92177
G1 X100.843 Y126.885 E88.98397
G1 X100.195 Y126.766 E89.04623
G1 X99.567 Y126.569 E89.10843
G1 X98.967 Y126.297 E89.17068
G1 X98.404 Y125.955 E89.23293
G1 X97.887 Y125.547 E89.29517
G1 X97.424 Y125.08 E89.35731
G1 X97.02 Y124.559 E89.41962
G1 X96.682 Y123.994 E89.48183
G1 X96.416 Y123.392 E89.54403
G1 X96.224 Y122.762 E89.60627
G1 X96.11 Y122.114 E89.66844
G1 X96.075 Y121.5 E89.72656
G1 X96.075 Y101.5 E91.61656
G1 X96.115 Y100.843 E91.67876
G1 X96.234 Y100.195 E91.74102
G1 X96.431 Y99.567 E91.80322
G1 X96.703 Y98.967 E91.86547
G1 X97.045 Y98.404 E91.92773
G1 X97.453 Y97.887 E91.98996
G1 X97.92 Y97.424 E92.05211
G0 F4500 X97.799 Y98.028
G1 F1800 X98.263 Y97.592 E92.11228
G1 X98.778 Y97.217 E92.17248
G1 X99.335 Y96.91 E92.23258
G1 X99.927 Y96.675 E92.29277
G1 X100.544 Y96.516 E92.35298
G1 X101.176 Y96.435 E92.4132
G1 X101.5 Y96.425 E92.44383
G1 X121.5 Y96.425 E94.33383
G1 X122.136 Y96.465 E94.39405
G1 X122.761 Y96.584 E94.45417
G1 X123.367 Y96.781 E94.51439
G1 X123.943 Y97.052 E94.57454
G1 X124.481 Y97.393 E94.63474
G1 X124.972 Y97.799 E94.69495
G1 X125.408 Y98.263 E94.75511
G1 X125.783 Y98.778 E94.81532
G1 X126.09 Y99.335 E94.87542
G1 X126.325 Y99.927 E94.93561
G1 X126.484 Y100.544 E94.99582
G1 X126.565 Y101.176 E95.05603
G1 X126.575 Y101.5 E95.08667
G1 X126.575 Y121.5 E96.97667
G1 X126.535 Y122.136 E97.03689
G1 X126.416 Y122.761 E97.09701
G1 X126.219 Y123.367 E97.15723
G1 X125.948 Y123.943 E97.21738
G1 X125.607 Y124.481 E97.27758
G1 X125.201 Y124.972 E97.33778
G1 X124.737 Y125.408 E97.39795
G1 X124.222 Y125.783 E97.45815
G1 X123.665 Y126.09 E97.51826
G1 X123.073 Y126.325 E97.57845
G1 X122.456 Y126.484 E97.63866
G1 X121.824 Y126.565 E97.69887
